scratch/test.cube
TITLE "Custom LUT"
LUT_3D_SIZE 5
# Created with Quick Image Formatting
0.000000 0.000000 0.000000
0.250000 0.000000 0.000000
0.550000 0.000000 0.000000
0.850000 0.000000 0.000000
1.000000 0.000000 0.000000
0.000000 0.250000 0.000000
0.250000 0.250000 0.000000
0.550000 0.250000 0.000000
0.850000 0.250000 0.000000
1.000000 0.250000 0.000000
0.000000 0.550000 0.000000
0.250000 0.550000 0.000000
0.550000 0.550000 0.000000
0.850000 0.550000 0.000000
1.000000 0.550000 0.000000
0.000000 0.850000 0.000000
0.250000 0.850000 0.000000
0.550000 0.850000 0.000000
0.850000 0.850000 0.000000
1.000000 0.850000 0.000000
0.000000 1.000000 0.000000
0.250000 1.000000 0.000000
0.550000 1.000000 0.000000
0.850000 1.000000 0.000000
1.000000 1.000000 0.000000
0.000000 0.000000 0.250000
0.250000 0.000000 0.250000
0.550000 0.000000 0.250000
0.850000 0.000000 0.250000
1.000000 0.000000 0.250000
0.000000 0.250000 0.250000
0.250000 0.250000 0.250000
0.550000 0.250000 0.250000
0.850000 0.250000 0.250000
1.000000 0.250000 0.250000
0.000000 0.550000 0.250000
0.250000 0.550000 0.250000
0.550000 0.550000 0.250000
0.850000 0.550000 0.250000
1.000000 0.550000 0.250000
0.000000 0.850000 0.250000
0.250000 0.850000 0.250000
0.550000 0.850000 0.250000
0.850000 0.850000 0.250000
1.000000 0.850000 0.250000
0.000000 1.000000 0.250000
0.250000 1.000000 0.250000
0.550000 1.000000 0.250000
0.850000 1.000000 0.250000
1.000000 1.000000 0.250000
0.000000 0.000000 0.550000
0.250000 0.000000 0.550000
0.550000 0.000000 0.550000
0.850000 0.000000 0.550000
1.000000 0.000000 0.550000
0.000000 0.250000 0.550000
0.250000 0.250000 0.550000
0.550000 0.250000 0.550000
0.850000 0.250000 0.550000
1.000000 0.250000 0.550000
0.000000 0.550000 0.550000
0.250000 0.550000 0.550000
0.550000 0.550000 0.550000
0.850000 0.550000 0.550000
1.000000 0.550000 0.550000
0.000000 0.850000 0.550000
0.250000 0.850000 0.550000
0.550000 0.850000 0.550000
0.850000 0.850000 0.550000
1.000000 0.850000 0.550000
0.000000 1.000000 0.550000
0.250000 1.000000 0.550000
0.550000 1.000000 0.550000
0.850000 1.000000 0.550000
1.000000 1.000000 0.550000
0.000000 0.000000 0.850000
0.250000 0.000000 0.850000
0.550000 0.000000 0.850000
0.850000 0.000000 0.850000
1.000000 0.000000 0.850000
0.000000 0.250000 0.850000
0.250000 0.250000 0.850000
0.550000 0.250000 0.850000
0.850000 0.250000 0.850000
1.000000 0.250000 0.850000
0.000000 0.550000 0.850000
0.250000 0.550000 0.850000
0.550000 0.550000 0.850000
0.850000 0.550000 0.850000
1.000000 0.550000 0.850000
0.000000 0.850000 0.850000
0.250000 0.850000 0.850000
0.550000 0.850000 0.850000
0.850000 0.850000 0.850000
1.000000 0.850000 0.850000
0.000000 1.000000 0.850000
0.250000 1.000000 0.850000
0.550000 1.000000 0.850000
0.850000 1.000000 0.850000
1.000000 1.000000 0.850000
0.000000 0.000000 1.000000
0.250000 0.000000 1.000000
0.550000 0.000000 1.000000
0.850000 0.000000 1.000000
1.000000 0.000000 1.000000
0.000000 0.250000 1.000000
0.250000 0.250000 1.000000
0.550000 0.250000 1.000000
0.850000 0.250000 1.000000
1.000000 0.250000 1.000000
0.000000 0.550000 1.000000
0.250000 0.550000 1.000000
0.550000 0.550000 1.000000
0.850000 0.550000 1.000000
1.000000 0.550000 1.000000
0.000000 0.850000 1.000000
0.250000 0.850000 1.000000
0.550000 0.850000 1.000000
0.850000 0.850000 1.000000
1.000000 0.850000 1.000000
0.000000 1.000000 1.000000
0.250000 1.000000 1.000000
0.550000 1.000000 1.000000
0.850000 1.000000 1.000000
1.000000 1.000000 1.000000
