scratch/test.cube
TITLE "Custom LUT"
LUT_3D_SIZE 33
# Created with Quick Image Formatting
0.000000 0.000000 0.000000
0.000000 0.000000 0.000000
0.025000 0.000000 0.000000
0.062500 0.000000 0.000000
0.100000 0.000000 0.000000
0.137500 0.000000 0.000000
0.175000 0.000000 0.000000
0.212500 0.000000 0.000000
0.250000 0.000000 0.000000
0.287500 0.000000 0.000000
0.325000 0.000000 0.000000
0.362500 0.000000 0.000000
0.400000 0.000000 0.000000
0.437500 0.000000 0.000000
0.475000 0.000000 0.000000
0.512500 0.000000 0.000000
0.550000 0.000000 0.000000
0.587500 0.000000 0.000000
0.625000 0.000000 0.000000
0.662500 0.000000 0.000000
0.700000 0.000000 0.000000
0.737500 0.000000 0.000000
0.775000 0.000000 0.000000
0.812500 0.000000 0.000000
0.850000 0.000000 0.000000
0.887500 0.000000 0.000000
0.925000 0.000000 0.000000
0.962500 0.000000 0.000000
1.000000 0.000000 0.000000
1.000000 0.000000 0.000000
1.000000 0.000000 0.000000
1.000000 0.000000 0.000000
1.000000 0.000000 0.000000
0.000000 0.000000 0.000000
0.000000 0.000000 0.000000
0.025000 0.000000 0.000000
0.062500 0.000000 0.000000
0.100000 0.000000 0.000000
0.137500 0.000000 0.000000
0.175000 0.000000 0.000000
0.212500 0.000000 0.000000
0.250000 0.000000 0.000000
0.287500 0.000000 0.000000
0.325000 0.000000 0.000000
0.362500 0.000000 0.000000
0.400000 0.000000 0.000000
0.437500 0.000000 0.000000
0.475000 0.000000 0.000000
0.512500 0.000000 0.000000
0.550000 0.000000 0.000000
0.587500 0.000000 0.000000
0.625000 0.000000 0.000000
0.662500 0.000000 0.000000
0.700000 0.000000 0.000000
0.737500 0.000000 0.000000
0.775000 0.000000 0.000000
0.812500 0.000000 0.000000
0.850000 0.000000 0.000000
0.887500 0.000000 0.000000
0.925000 0.000000 0.000000
0.962500 0.000000 0.000000
1.000000 0.000000 0.000000
1.000000 0.000000 0.000000
1.000000 0.000000 0.000000
1.000000 0.000000 0.000000
1.000000 0.000000 0.000000
0.000000 0.025000 0.000000
0.000000 0.025000 0.000000
0.025000 0.025000 0.000000
0.062500 0.025000 0.000000
0.100000 0.025000 0.000000
0.137500 0.025000 0.000000
0.175000 0.025000 0.000000
0.212500 0.025000 0.000000
0.250000 0.025000 0.000000
0.287500 0.025000 0.000000
0.325000 0.025000 0.000000
0.362500 0.025000 0.000000
0.400000 0.025000 0.000000
0.437500 0.025000 0.000000
0.475000 0.025000 0.000000
0.512500 0.025000 0.000000
0.550000 0.025000 0.000000
0.587500 0.025000 0.000000
0.625000 0.025000 0.000000
0.662500 0.025000 0.000000
0.700000 0.025000 0.000000
0.737500 0.025000 0.000000
0.775000 0.025000 0.000000
0.812500 0.025000 0.000000
0.850000 0.025000 0.000000
0.887500 0.025000 0.000000
0.925000 0.025000 0.000000
0.962500 0.025000 0.000000
1.000000 0.025000 0.000000
1.000000 0.025000 0.000000
1.000000 0.025000 0.000000
1.000000 0.025000 0.000000
1.000000 0.025000 0.000000
0.000000 0.062500 0.000000
0.000000 0.062500 0.000000
0.025000 0.062500 0.000000
0.062500 0.062500 0.000000
0.100000 0.062500 0.000000
0.137500 0.062500 0.000000
0.175000 0.062500 0.000000
0.212500 0.062500 0.000000
0.250000 0.062500 0.000000
0.287500 0.062500 0.000000
0.325000 0.062500 0.000000
0.362500 0.062500 0.000000
0.400000 0.062500 0.000000
0.437500 0.062500 0.000000
0.475000 0.062500 0.000000
0.512500 0.062500 0.000000
0.550000 0.062500 0.000000
0.587500 0.062500 0.000000
0.625000 0.062500 0.000000
0.662500 0.062500 0.000000
0.700000 0.062500 0.000000
0.737500 0.062500 0.000000
0.775000 0.062500 0.000000
0.812500 0.062500 0.000000
0.850000 0.062500 0.000000
0.887500 0.062500 0.000000
0.925000 0.062500 0.000000
0.962500 0.062500 0.000000
1.000000 0.062500 0.000000
1.000000 0.062500 0.000000
1.000000 0.062500 0.000000
1.000000 0.062500 0.000000
1.000000 0.062500 0.000000
0.000000 0.100000 0.000000
0.000000 0.100000 0.000000
0.025000 0.100000 0.000000
0.062500 0.100000 0.000000
0.100000 0.100000 0.000000
0.137500 0.100000 0.000000
0.175000 0.100000 0.000000
0.212500 0.100000 0.000000
0.250000 0.100000 0.000000
0.287500 0.100000 0.000000
0.325000 0.100000 0.000000
0.362500 0.100000 0.000000
0.400000 0.100000 0.000000
0.437500 0.100000 0.000000
0.475000 0.100000 0.000000
0.512500 0.100000 0.000000
0.550000 0.100000 0.000000
0.587500 0.100000 0.000000
0.625000 0.100000 0.000000
0.662500 0.100000 0.000000
0.700000 0.100000 0.000000
0.737500 0.100000 0.000000
0.775000 0.100000 0.000000
0.812500 0.100000 0.000000
0.850000 0.100000 0.000000
0.887500 0.100000 0.000000
0.925000 0.100000 0.000000
0.962500 0.100000 0.000000
1.000000 0.100000 0.000000
1.000000 0.100000 0.000000
1.000000 0.100000 0.000000
1.000000 0.100000 0.000000
1.000000 0.100000 0.000000
0.000000 0.137500 0.000000
0.000000 0.137500 0.000000
0.025000 0.137500 0.000000
0.062500 0.137500 0.000000
0.100000 0.137500 0.000000
0.137500 0.137500 0.000000
0.175000 0.137500 0.000000
0.212500 0.137500 0.000000
0.250000 0.137500 0.000000
0.287500 0.137500 0.000000
0.325000 0.137500 0.000000
0.362500 0.137500 0.000000
0.400000 0.137500 0.000000
0.437500 0.137500 0.000000
0.475000 0.137500 0.000000
0.512500 0.137500 0.000000
0.550000 0.137500 0.000000
0.587500 0.137500 0.000000
0.625000 0.137500 0.000000
0.662500 0.137500 0.000000
0.700000 0.137500 0.000000
0.737500 0.137500 0.000000
0.775000 0.137500 0.000000
0.812500 0.137500 0.000000
0.850000 0.137500 0.000000
0.887500 0.137500 0.000000
0.925000 0.137500 0.000000
0.962500 0.137500 0.000000
1.000000 0.137500 0.000000
1.000000 0.137500 0.000000
1.000000 0.137500 0.000000
1.000000 0.137500 0.000000
1.000000 0.137500 0.000000
0.000000 0.175000 0.000000
0.000000 0.175000 0.000000
0.025000 0.175000 0.000000
0.062500 0.175000 0.000000
0.100000 0.175000 0.000000
0.137500 0.175000 0.000000
0.175000 0.175000 0.000000
0.212500 0.175000 0.000000
0.250000 0.175000 0.000000
0.287500 0.175000 0.000000
0.325000 0.175000 0.000000
0.362500 0.175000 0.000000
0.400000 0.175000 0.000000
0.437500 0.175000 0.000000
0.475000 0.175000 0.000000
0.512500 0.175000 0.000000
0.550000 0.175000 0.000000
0.587500 0.175000 0.000000
0.625000 0.175000 0.000000
0.662500 0.175000 0.000000
0.700000 0.175000 0.000000
0.737500 0.175000 0.000000
0.775000 0.175000 0.000000
0.812500 0.175000 0.000000
0.850000 0.175000 0.000000
0.887500 0.175000 0.000000
0.925000 0.175000 0.000000
0.962500 0.175000 0.000000
1.000000 0.175000 0.000000
1.000000 0.175000 0.000000
1.000000 0.175000 0.000000
1.000000 0.175000 0.000000
1.000000 0.175000 0.000000
0.000000 0.212500 0.000000
0.000000 0.212500 0.000000
0.025000 0.212500 0.000000
0.062500 0.212500 0.000000
0.100000 0.212500 0.000000
0.137500 0.212500 0.000000
0.175000 0.212500 0.000000
0.212500 0.212500 0.000000
0.250000 0.212500 0.000000
0.287500 0.212500 0.000000
0.325000 0.212500 0.000000
0.362500 0.212500 0.000000
0.400000 0.212500 0.000000
0.437500 0.212500 0.000000
0.475000 0.212500 0.000000
0.512500 0.212500 0.000000
0.550000 0.212500 0.000000
0.587500 0.212500 0.000000
0.625000 0.212500 0.000000
0.662500 0.212500 0.000000
0.700000 0.212500 0.000000
0.737500 0.212500 0.000000
0.775000 0.212500 0.000000
0.812500 0.212500 0.000000
0.850000 0.212500 0.000000
0.887500 0.212500 0.000000
0.925000 0.212500 0.000000
0.962500 0.212500 0.000000
1.000000 0.212500 0.000000
1.000000 0.212500 0.000000
1.000000 0.212500 0.000000
1.000000 0.212500 0.000000
1.000000 0.212500 0.000000
0.000000 0.250000 0.000000
0.000000 0.250000 0.000000
0.025000 0.250000 0.000000
0.062500 0.250000 0.000000
0.100000 0.250000 0.000000
0.137500 0.250000 0.000000
0.175000 0.250000 0.000000
0.212500 0.250000 0.000000
0.250000 0.250000 0.000000
0.287500 0.250000 0.000000
0.325000 0.250000 0.000000
0.362500 0.250000 0.000000
0.400000 0.250000 0.000000
0.437500 0.250000 0.000000
0.475000 0.250000 0.000000
0.512500 0.250000 0.000000
0.550000 0.250000 0.000000
0.587500 0.250000 0.000000
0.625000 0.250000 0.000000
0.662500 0.250000 0.000000
0.700000 0.250000 0.000000
0.737500 0.250000 0.000000
0.775000 0.250000 0.000000
0.812500 0.250000 0.000000
0.850000 0.250000 0.000000
0.887500 0.250000 0.000000
0.925000 0.250000 0.000000
0.962500 0.250000 0.000000
1.000000 0.250000 0.000000
1.000000 0.250000 0.000000
1.000000 0.250000 0.000000
1.000000 0.250000 0.000000
1.000000 0.250000 0.000000
0.000000 0.287500 0.000000
0.000000 0.287500 0.000000
0.025000 0.287500 0.000000
0.062500 0.287500 0.000000
0.100000 0.287500 0.000000
0.137500 0.287500 0.000000
0.175000 0.287500 0.000000
0.212500 0.287500 0.000000
0.250000 0.287500 0.000000
0.287500 0.287500 0.000000
0.325000 0.287500 0.000000
0.362500 0.287500 0.000000
0.400000 0.287500 0.000000
0.437500 0.287500 0.000000
0.475000 0.287500 0.000000
0.512500 0.287500 0.000000
0.550000 0.287500 0.000000
0.587500 0.287500 0.000000
0.625000 0.287500 0.000000
0.662500 0.287500 0.000000
0.700000 0.287500 0.000000
0.737500 0.287500 0.000000
0.775000 0.287500 0.000000
0.812500 0.287500 0.000000
0.850000 0.287500 0.000000
0.887500 0.287500 0.000000
0.925000 0.287500 0.000000
0.962500 0.287500 0.000000
1.000000 0.287500 0.000000
1.000000 0.287500 0.000000
1.000000 0.287500 0.000000
1.000000 0.287500 0.000000
1.000000 0.287500 0.000000
0.000000 0.325000 0.000000
0.000000 0.325000 0.000000
0.025000 0.325000 0.000000
0.062500 0.325000 0.000000
0.100000 0.325000 0.000000
0.137500 0.325000 0.000000
0.175000 0.325000 0.000000
0.212500 0.325000 0.000000
0.250000 0.325000 0.000000
0.287500 0.325000 0.000000
0.325000 0.325000 0.000000
0.362500 0.325000 0.000000
0.400000 0.325000 0.000000
0.437500 0.325000 0.000000
0.475000 0.325000 0.000000
0.512500 0.325000 0.000000
0.550000 0.325000 0.000000
0.587500 0.325000 0.000000
0.625000 0.325000 0.000000
0.662500 0.325000 0.000000
0.700000 0.325000 0.000000
0.737500 0.325000 0.000000
0.775000 0.325000 0.000000
0.812500 0.325000 0.000000
0.850000 0.325000 0.000000
0.887500 0.325000 0.000000
0.925000 0.325000 0.000000
0.962500 0.325000 0.000000
1.000000 0.325000 0.000000
1.000000 0.325000 0.000000
1.000000 0.325000 0.000000
1.000000 0.325000 0.000000
1.000000 0.325000 0.000000
0.000000 0.362500 0.000000
0.000000 0.362500 0.000000
0.025000 0.362500 0.000000
0.062500 0.362500 0.000000
0.100000 0.362500 0.000000
0.137500 0.362500 0.000000
0.175000 0.362500 0.000000
0.212500 0.362500 0.000000
0.250000 0.362500 0.000000
0.287500 0.362500 0.000000
0.325000 0.362500 0.000000
0.362500 0.362500 0.000000
0.400000 0.362500 0.000000
0.437500 0.362500 0.000000
0.475000 0.362500 0.000000
0.512500 0.362500 0.000000
0.550000 0.362500 0.000000
0.587500 0.362500 0.000000
0.625000 0.362500 0.000000
0.662500 0.362500 0.000000
0.700000 0.362500 0.000000
0.737500 0.362500 0.000000
0.775000 0.362500 0.000000
0.812500 0.362500 0.000000
0.850000 0.362500 0.000000
0.887500 0.362500 0.000000
0.925000 0.362500 0.000000
0.962500 0.362500 0.000000
1.000000 0.362500 0.000000
1.000000 0.362500 0.000000
1.000000 0.362500 0.000000
1.000000 0.362500 0.000000
1.000000 0.362500 0.000000
0.000000 0.400000 0.000000
0.000000 0.400000 0.000000
0.025000 0.400000 0.000000
0.062500 0.400000 0.000000
0.100000 0.400000 0.000000
0.137500 0.400000 0.000000
0.175000 0.400000 0.000000
0.212500 0.400000 0.000000
0.250000 0.400000 0.000000
0.287500 0.400000 0.000000
0.325000 0.400000 0.000000
0.362500 0.400000 0.000000
0.400000 0.400000 0.000000
0.437500 0.400000 0.000000
0.475000 0.400000 0.000000
0.512500 0.400000 0.000000
0.550000 0.400000 0.000000
0.587500 0.400000 0.000000
0.625000 0.400000 0.000000
0.662500 0.400000 0.000000
0.700000 0.400000 0.000000
0.737500 0.400000 0.000000
0.775000 0.400000 0.000000
0.812500 0.400000 0.000000
0.850000 0.400000 0.000000
0.887500 0.400000 0.000000
0.925000 0.400000 0.000000
0.962500 0.400000 0.000000
1.000000 0.400000 0.000000
1.000000 0.400000 0.000000
1.000000 0.400000 0.000000
1.000000 0.400000 0.000000
1.000000 0.400000 0.000000
0.000000 0.437500 0.000000
0.000000 0.437500 0.000000
0.025000 0.437500 0.000000
0.062500 0.437500 0.000000
0.100000 0.437500 0.000000
0.137500 0.437500 0.000000
0.175000 0.437500 0.000000
0.212500 0.437500 0.000000
0.250000 0.437500 0.000000
0.287500 0.437500 0.000000
0.325000 0.437500 0.000000
0.362500 0.437500 0.000000
0.400000 0.437500 0.000000
0.437500 0.437500 0.000000
0.475000 0.437500 0.000000
0.512500 0.437500 0.000000
0.550000 0.437500 0.000000
0.587500 0.437500 0.000000
0.625000 0.437500 0.000000
0.662500 0.437500 0.000000
0.700000 0.437500 0.000000
0.737500 0.437500 0.000000
0.775000 0.437500 0.000000
0.812500 0.437500 0.000000
0.850000 0.437500 0.000000
0.887500 0.437500 0.000000
0.925000 0.437500 0.000000
0.962500 0.437500 0.000000
1.000000 0.437500 0.000000
1.000000 0.437500 0.000000
1.000000 0.437500 0.000000
1.000000 0.437500 0.000000
1.000000 0.437500 0.000000
0.000000 0.475000 0.000000
0.000000 0.475000 0.000000
0.025000 0.475000 0.000000
0.062500 0.475000 0.000000
0.100000 0.475000 0.000000
0.137500 0.475000 0.000000
0.175000 0.475000 0.000000
0.212500 0.475000 0.000000
0.250000 0.475000 0.000000
0.287500 0.475000 0.000000
0.325000 0.475000 0.000000
0.362500 0.475000 0.000000
0.400000 0.475000 0.000000
0.437500 0.475000 0.000000
0.475000 0.475000 0.000000
0.512500 0.475000 0.000000
0.550000 0.475000 0.000000
0.587500 0.475000 0.000000
0.625000 0.475000 0.000000
0.662500 0.475000 0.000000
0.700000 0.475000 0.000000
0.737500 0.475000 0.000000
0.775000 0.475000 0.000000
0.812500 0.475000 0.000000
0.850000 0.475000 0.000000
0.887500 0.475000 0.000000
0.925000 0.475000 0.000000
0.962500 0.475000 0.000000
1.000000 0.475000 0.000000
1.000000 0.475000 0.000000
1.000000 0.475000 0.000000
1.000000 0.475000 0.000000
1.000000 0.475000 0.000000
0.000000 0.512500 0.000000
0.000000 0.512500 0.000000
0.025000 0.512500 0.000000
0.062500 0.512500 0.000000
0.100000 0.512500 0.000000
0.137500 0.512500 0.000000
0.175000 0.512500 0.000000
0.212500 0.512500 0.000000
0.250000 0.512500 0.000000
0.287500 0.512500 0.000000
0.325000 0.512500 0.000000
0.362500 0.512500 0.000000
0.400000 0.512500 0.000000
0.437500 0.512500 0.000000
0.475000 0.512500 0.000000
0.512500 0.512500 0.000000
0.550000 0.512500 0.000000
0.587500 0.512500 0.000000
0.625000 0.512500 0.000000
0.662500 0.512500 0.000000
0.700000 0.512500 0.000000
0.737500 0.512500 0.000000
0.775000 0.512500 0.000000
0.812500 0.512500 0.000000
0.850000 0.512500 0.000000
0.887500 0.512500 0.000000
0.925000 0.512500 0.000000
0.962500 0.512500 0.000000
1.000000 0.512500 0.000000
1.000000 0.512500 0.000000
1.000000 0.512500 0.000000
1.000000 0.512500 0.000000
1.000000 0.512500 0.000000
0.000000 0.550000 0.000000
0.000000 0.550000 0.000000
0.025000 0.550000 0.000000
0.062500 0.550000 0.000000
0.100000 0.550000 0.000000
0.137500 0.550000 0.000000
0.175000 0.550000 0.000000
0.212500 0.550000 0.000000
0.250000 0.550000 0.000000
0.287500 0.550000 0.000000
0.325000 0.550000 0.000000
0.362500 0.550000 0.000000
0.400000 0.550000 0.000000
0.437500 0.550000 0.000000
0.475000 0.550000 0.000000
0.512500 0.550000 0.000000
0.550000 0.550000 0.000000
0.587500 0.550000 0.000000
0.625000 0.550000 0.000000
0.662500 0.550000 0.000000
0.700000 0.550000 0.000000
0.737500 0.550000 0.000000
0.775000 0.550000 0.000000
0.812500 0.550000 0.000000
0.850000 0.550000 0.000000
0.887500 0.550000 0.000000
0.925000 0.550000 0.000000
0.962500 0.550000 0.000000
1.000000 0.550000 0.000000
1.000000 0.550000 0.000000
1.000000 0.550000 0.000000
1.000000 0.550000 0.000000
1.000000 0.550000 0.000000
0.000000 0.587500 0.000000
0.000000 0.587500 0.000000
0.025000 0.587500 0.000000
0.062500 0.587500 0.000000
0.100000 0.587500 0.000000
0.137500 0.587500 0.000000
0.175000 0.587500 0.000000
0.212500 0.587500 0.000000
0.250000 0.587500 0.000000
0.287500 0.587500 0.000000
0.325000 0.587500 0.000000
0.362500 0.587500 0.000000
0.400000 0.587500 0.000000
0.437500 0.587500 0.000000
0.475000 0.587500 0.000000
0.512500 0.587500 0.000000
0.550000 0.587500 0.000000
0.587500 0.587500 0.000000
0.625000 0.587500 0.000000
0.662500 0.587500 0.000000
0.700000 0.587500 0.000000
0.737500 0.587500 0.000000
0.775000 0.587500 0.000000
0.812500 0.587500 0.000000
0.850000 0.587500 0.000000
0.887500 0.587500 0.000000
0.925000 0.587500 0.000000
0.962500 0.587500 0.000000
1.000000 0.587500 0.000000
1.000000 0.587500 0.000000
1.000000 0.587500 0.000000
1.000000 0.587500 0.000000
1.000000 0.587500 0.000000
0.000000 0.625000 0.000000
0.000000 0.625000 0.000000
0.025000 0.625000 0.000000
0.062500 0.625000 0.000000
0.100000 0.625000 0.000000
0.137500 0.625000 0.000000
0.175000 0.625000 0.000000
0.212500 0.625000 0.000000
0.250000 0.625000 0.000000
0.287500 0.625000 0.000000
0.325000 0.625000 0.000000
0.362500 0.625000 0.000000
0.400000 0.625000 0.000000
0.437500 0.625000 0.000000
0.475000 0.625000 0.000000
0.512500 0.625000 0.000000
0.550000 0.625000 0.000000
0.587500 0.625000 0.000000
0.625000 0.625000 0.000000
0.662500 0.625000 0.000000
0.700000 0.625000 0.000000
0.737500 0.625000 0.000000
0.775000 0.625000 0.000000
0.812500 0.625000 0.000000
0.850000 0.625000 0.000000
0.887500 0.625000 0.000000
0.925000 0.625000 0.000000
0.962500 0.625000 0.000000
1.000000 0.625000 0.000000
1.000000 0.625000 0.000000
1.000000 0.625000 0.000000
1.000000 0.625000 0.000000
1.000000 0.625000 0.000000
0.000000 0.662500 0.000000
0.000000 0.662500 0.000000
0.025000 0.662500 0.000000
0.062500 0.662500 0.000000
0.100000 0.662500 0.000000
0.137500 0.662500 0.000000
0.175000 0.662500 0.000000
0.212500 0.662500 0.000000
0.250000 0.662500 0.000000
0.287500 0.662500 0.000000
0.325000 0.662500 0.000000
0.362500 0.662500 0.000000
0.400000 0.662500 0.000000
0.437500 0.662500 0.000000
0.475000 0.662500 0.000000
0.512500 0.662500 0.000000
0.550000 0.662500 0.000000
0.587500 0.662500 0.000000
0.625000 0.662500 0.000000
0.662500 0.662500 0.000000
0.700000 0.662500 0.000000
0.737500 0.662500 0.000000
0.775000 0.662500 0.000000
0.812500 0.662500 0.000000
0.850000 0.662500 0.000000
0.887500 0.662500 0.000000
0.925000 0.662500 0.000000
0.962500 0.662500 0.000000
1.000000 0.662500 0.000000
1.000000 0.662500 0.000000
1.000000 0.662500 0.000000
1.000000 0.662500 0.000000
1.000000 0.662500 0.000000
0.000000 0.700000 0.000000
0.000000 0.700000 0.000000
0.025000 0.700000 0.000000
0.062500 0.700000 0.000000
0.100000 0.700000 0.000000
0.137500 0.700000 0.000000
0.175000 0.700000 0.000000
0.212500 0.700000 0.000000
0.250000 0.700000 0.000000
0.287500 0.700000 0.000000
0.325000 0.700000 0.000000
0.362500 0.700000 0.000000
0.400000 0.700000 0.000000
0.437500 0.700000 0.000000
0.475000 0.700000 0.000000
0.512500 0.700000 0.000000
0.550000 0.700000 0.000000
0.587500 0.700000 0.000000
0.625000 0.700000 0.000000
0.662500 0.700000 0.000000
0.700000 0.700000 0.000000
0.737500 0.700000 0.000000
0.775000 0.700000 0.000000
0.812500 0.700000 0.000000
0.850000 0.700000 0.000000
0.887500 0.700000 0.000000
0.925000 0.700000 0.000000
0.962500 0.700000 0.000000
1.000000 0.700000 0.000000
1.000000 0.700000 0.000000
1.000000 0.700000 0.000000
1.000000 0.700000 0.000000
1.000000 0.700000 0.000000
0.000000 0.737500 0.000000
0.000000 0.737500 0.000000
0.025000 0.737500 0.000000
0.062500 0.737500 0.000000
0.100000 0.737500 0.000000
0.137500 0.737500 0.000000
0.175000 0.737500 0.000000
0.212500 0.737500 0.000000
0.250000 0.737500 0.000000
0.287500 0.737500 0.000000
0.325000 0.737500 0.000000
0.362500 0.737500 0.000000
0.400000 0.737500 0.000000
0.437500 0.737500 0.000000
0.475000 0.737500 0.000000
0.512500 0.737500 0.000000
0.550000 0.737500 0.000000
0.587500 0.737500 0.000000
0.625000 0.737500 0.000000
0.662500 0.737500 0.000000
0.700000 0.737500 0.000000
0.737500 0.737500 0.000000
0.775000 0.737500 0.000000
0.812500 0.737500 0.000000
0.850000 0.737500 0.000000
0.887500 0.737500 0.000000
0.925000 0.737500 0.000000
0.962500 0.737500 0.000000
1.000000 0.737500 0.000000
1.000000 0.737500 0.000000
1.000000 0.737500 0.000000
1.000000 0.737500 0.000000
1.000000 0.737500 0.000000
0.000000 0.775000 0.000000
0.000000 0.775000 0.000000
0.025000 0.775000 0.000000
0.062500 0.775000 0.000000
0.100000 0.775000 0.000000
0.137500 0.775000 0.000000
0.175000 0.775000 0.000000
0.212500 0.775000 0.000000
0.250000 0.775000 0.000000
0.287500 0.775000 0.000000
0.325000 0.775000 0.000000
0.362500 0.775000 0.000000
0.400000 0.775000 0.000000
0.437500 0.775000 0.000000
0.475000 0.775000 0.000000
0.512500 0.775000 0.000000
0.550000 0.775000 0.000000
0.587500 0.775000 0.000000
0.625000 0.775000 0.000000
0.662500 0.775000 0.000000
0.700000 0.775000 0.000000
0.737500 0.775000 0.000000
0.775000 0.775000 0.000000
0.812500 0.775000 0.000000
0.850000 0.775000 0.000000
0.887500 0.775000 0.000000
0.925000 0.775000 0.000000
0.962500 0.775000 0.000000
1.000000 0.775000 0.000000
1.000000 0.775000 0.000000
1.000000 0.775000 0.000000
1.000000 0.775000 0.000000
1.000000 0.775000 0.000000
0.000000 0.812500 0.000000
0.000000 0.812500 0.000000
0.025000 0.812500 0.000000
0.062500 0.812500 0.000000
0.100000 0.812500 0.000000
0.137500 0.812500 0.000000
0.175000 0.812500 0.000000
0.212500 0.812500 0.000000
0.250000 0.812500 0.000000
0.287500 0.812500 0.000000
0.325000 0.812500 0.000000
0.362500 0.812500 0.000000
0.400000 0.812500 0.000000
0.437500 0.812500 0.000000
0.475000 0.812500 0.000000
0.512500 0.812500 0.000000
0.550000 0.812500 0.000000
0.587500 0.812500 0.000000
0.625000 0.812500 0.000000
0.662500 0.812500 0.000000
0.700000 0.812500 0.000000
0.737500 0.812500 0.000000
0.775000 0.812500 0.000000
0.812500 0.812500 0.000000
0.850000 0.812500 0.000000
0.887500 0.812500 0.000000
0.925000 0.812500 0.000000
0.962500 0.812500 0.000000
1.000000 0.812500 0.000000
1.000000 0.812500 0.000000
1.000000 0.812500 0.000000
1.000000 0.812500 0.000000
1.000000 0.812500 0.000000
0.000000 0.850000 0.000000
0.000000 0.850000 0.000000
0.025000 0.850000 0.000000
0.062500 0.850000 0.000000
0.100000 0.850000 0.000000
0.137500 0.850000 0.000000
0.175000 0.850000 0.000000
0.212500 0.850000 0.000000
0.250000 0.850000 0.000000
0.287500 0.850000 0.000000
0.325000 0.850000 0.000000
0.362500 0.850000 0.000000
0.400000 0.850000 0.000000
0.437500 0.850000 0.000000
0.475000 0.850000 0.000000
0.512500 0.850000 0.000000
0.550000 0.850000 0.000000
0.587500 0.850000 0.000000
0.625000 0.850000 0.000000
0.662500 0.850000 0.000000
0.700000 0.850000 0.000000
0.737500 0.850000 0.000000
0.775000 0.850000 0.000000
0.812500 0.850000 0.000000
0.850000 0.850000 0.000000
0.887500 0.850000 0.000000
0.925000 0.850000 0.000000
0.962500 0.850000 0.000000
1.000000 0.850000 0.000000
1.000000 0.850000 0.000000
1.000000 0.850000 0.000000
1.000000 0.850000 0.000000
1.000000 0.850000 0.000000
0.000000 0.887500 0.000000
0.000000 0.887500 0.000000
0.025000 0.887500 0.000000
0.062500 0.887500 0.000000
0.100000 0.887500 0.000000
0.137500 0.887500 0.000000
0.175000 0.887500 0.000000
0.212500 0.887500 0.000000
0.250000 0.887500 0.000000
0.287500 0.887500 0.000000
0.325000 0.887500 0.000000
0.362500 0.887500 0.000000
0.400000 0.887500 0.000000
0.437500 0.887500 0.000000
0.475000 0.887500 0.000000
0.512500 0.887500 0.000000
0.550000 0.887500 0.000000
0.587500 0.887500 0.000000
0.625000 0.887500 0.000000
0.662500 0.887500 0.000000
0.700000 0.887500 0.000000
0.737500 0.887500 0.000000
0.775000 0.887500 0.000000
0.812500 0.887500 0.000000
0.850000 0.887500 0.000000
0.887500 0.887500 0.000000
0.925000 0.887500 0.000000
0.962500 0.887500 0.000000
1.000000 0.887500 0.000000
1.000000 0.887500 0.000000
1.000000 0.887500 0.000000
1.000000 0.887500 0.000000
1.000000 0.887500 0.000000
0.000000 0.925000 0.000000
0.000000 0.925000 0.000000
0.025000 0.925000 0.000000
0.062500 0.925000 0.000000
0.100000 0.925000 0.000000
0.137500 0.925000 0.000000
0.175000 0.925000 0.000000
0.212500 0.925000 0.000000
0.250000 0.925000 0.000000
0.287500 0.925000 0.000000
0.325000 0.925000 0.000000
0.362500 0.925000 0.000000
0.400000 0.925000 0.000000
0.437500 0.925000 0.000000
0.475000 0.925000 0.000000
0.512500 0.925000 0.000000
0.550000 0.925000 0.000000
0.587500 0.925000 0.000000
0.625000 0.925000 0.000000
0.662500 0.925000 0.000000
0.700000 0.925000 0.000000
0.737500 0.925000 0.000000
0.775000 0.925000 0.000000
0.812500 0.925000 0.000000
0.850000 0.925000 0.000000
0.887500 0.925000 0.000000
0.925000 0.925000 0.000000
0.962500 0.925000 0.000000
